app/assets/img/work/ttl-trocco-pc.svg

<svg fill="none" height="23" viewBox="0 0 96 23" width="96" xmlns="http://www.w3.org/2000/svg"><path d="m7.744 22.256c-.78933 0-1.488-.112-2.096-.336-.59733-.2347-1.104-.56-1.52-.976-.40533-.4267-.71467-.9387-.928-1.536s-.32-1.264-.32-2v-8.576h-1.408c-.256 0-.474667-.08-.656-.24-.181333-.17067-.272-.416-.272-.736v-1.936l2.64-.512.976-4.048c.128-.512001.49067-.768001 1.088-.768001h2.592v4.848001h4.032v3.392h-4.032v8.24c0 .384.09067.704.272.96.192.2453.464.368.816.368.18133 0 .33067-.016.448-.048.128-.0427.23467-.0853.32-.128.096-.0533.18133-.096.256-.128.0853-.0427.1813-.064.288-.064.1493 0 .2667.0373.352.112.096.064.192.1707.288.32l1.504 2.352c-.64.48-1.36.8427-2.16 1.088-.8.2347-1.62667.352-2.48.352zm7.3085-.256v-16.592h2.944c.2453 0 .448.02133.608.064.1707.04267.3093.112.416.208.1173.08533.2027.20267.256.352.064.14933.1173.33067.16.544l.272 1.552c.608-.93867 1.2907-1.68 2.048-2.224s1.584-.816 2.48-.816c.7573 0 1.3653.18133 1.824.544l-.64 3.648c-.0427.224-.128.384-.256.48-.128.08533-.2987.128-.512.128-.1813 0-.3947-.02133-.64-.064-.2453-.05333-.5547-.08-.928-.08-1.3013 0-2.3253.6933-3.072 2.08v10.176zm20.9307-16.848c1.2587 0 2.4054.19733 3.4401.592 1.0346.39467 1.92.96 2.656 1.696.7466.736 1.3226 1.632 1.728 2.688.416 1.0453.6239 2.224.6239 3.536 0 1.3227-.2079 2.5173-.6239 3.584-.4054 1.056-.9814 1.9573-1.728 2.704-.736.736-1.6214 1.3067-2.656 1.712-1.0347.3947-2.1814.592-3.4401.592-1.2693 0-2.4266-.1973-3.472-.592-1.0346-.4053-1.9306-.976-2.688-1.712-.7466-.7467-1.328-1.648-1.744-2.704-.4053-1.0667-.608-2.2613-.608-3.584 0-1.312.2027-2.4907.608-3.536.416-1.056.9974-1.952 1.744-2.688.7574-.736 1.6534-1.30133 2.688-1.696 1.0454-.39467 2.2027-.592 3.472-.592zm0 13.424c1.1414 0 1.9787-.4 2.512-1.2.544-.8107.816-2.0373.816-3.68s-.272-2.864-.816-3.664c-.5333-.8-1.3706-1.2-2.512-1.2-1.1733 0-2.032.4-2.576 1.2s-.816 2.0213-.816 3.664.272 2.8693.816 3.68c.544.8 1.4027 1.2 2.576 1.2zm23.4585-9.232c-.1493.18133-.2933.32533-.432.432-.1386.10667-.336.16-.592.16-.2453 0-.4693-.05867-.672-.176-.192-.11733-.4106-.24533-.656-.384-.2453-.14933-.5333-.28267-.864-.4-.3306-.11733-.7413-.176-1.232-.176-.608 0-1.136.112-1.584.336-.4373.224-.8.544-1.088.96s-.5013.928-.64 1.536c-.1386.5973-.208 1.2747-.208 2.032 0 1.5893.304 2.8107.912 3.664.6187.8533 1.4667 1.28 2.544 1.28.576 0 1.0294-.0693 1.36-.208.3414-.1493.6294-.3093.864-.48.2347-.1813.448-.3467.64-.496.2027-.1493.4534-.224.752-.224.3947 0 .6934.144.896.432l1.4401 1.776c-.5121.5867-1.0507 1.0667-1.6161 1.44-.5653.3627-1.1466.6507-1.744.864-.5866.2027-1.1786.3413-1.776.416-.5973.0853-1.1786.128-1.744.128-1.0133 0-1.984-.192-2.912-.576-.9173-.384-1.728-.9387-2.432-1.664-.6933-.736-1.248-1.6373-1.664-2.704-.4053-1.0667-.608-2.2827-.608-3.648 0-1.1947.176-2.3093.528-3.344.3627-1.04533.8907-1.94667 1.584-2.704.704-.768 1.568-1.37067 2.592-1.808 1.0347-.43733 2.2294-.656 3.584-.656 1.3014 0 2.4427.208 3.424.624.9814.416 1.8667 1.024 2.656 1.824zm15.8825 0c-.1493.18133-.2933.32533-.432.432-.1386.10667-.336.16-.592.16-.2453 0-.4693-.05867-.672-.176-.192-.11733-.4106-.24533-.656-.384-.2453-.14933-.5333-.28267-.864-.4-.3306-.11733-.7413-.176-1.232-.176-.608 0-1.136.112-1.584.336-.4373.224-.8.544-1.088.96s-.5013.928-.64 1.536c-.1386.5973-.208 1.2747-.208 2.032 0 1.5893.304 2.8107.912 3.664.6187.8533 1.4667 1.28 2.544 1.28.576 0 1.0294-.0693 1.36-.208.3414-.1493.6294-.3093.864-.48.2347-.1813.448-.3467.64-.496.2027-.1493.4534-.224.752-.224.3947 0 .6934.144.896.432l1.44 1.776c-.512.5867-1.0506 1.0667-1.616 1.44-.5653.3627-1.1466.6507-1.744.864-.5866.2027-1.1786.3413-1.776.416-.5973.0853-1.1786.128-1.744.128-1.0133 0-1.984-.192-2.912-.576-.9173-.384-1.728-.9387-2.432-1.664-.6933-.736-1.248-1.6373-1.664-2.704-.4053-1.0667-.608-2.2827-.608-3.648 0-1.1947.176-2.3093.528-3.344.3627-1.04533.8907-1.94667 1.584-2.704.704-.768 1.568-1.37067 2.592-1.808 1.0347-.43733 2.2294-.656 3.584-.656 1.3014 0 2.4427.208 3.424.624.9814.416 1.8667 1.024 2.656 1.824zm11.3065-4.192c1.2587 0 2.4054.19733 3.44.592 1.0347.39467 1.92.96 2.656 1.696.7467.736 1.3227 1.632 1.7281 2.688.4159 1.0453.6239 2.224.6239 3.536 0 1.3227-.208 2.5173-.6239 3.584-.4054 1.056-.9814 1.9573-1.7281 2.704-.736.736-1.6213 1.3067-2.656 1.712-1.0346.3947-2.1813.592-3.44.592-1.2693 0-2.4266-.1973-3.472-.592-1.0346-.4053-1.9306-.976-2.688-1.712-.7466-.7467-1.328-1.648-1.744-2.704-.4053-1.0667-.608-2.2613-.608-3.584 0-1.312.2027-2.4907.608-3.536.416-1.056.9974-1.952 1.744-2.688.7574-.736 1.6534-1.30133 2.688-1.696 1.0454-.39467 2.2027-.592 3.472-.592zm0 13.424c1.1414 0 1.9787-.4 2.512-1.2.544-.8107.816-2.0373.816-3.68s-.272-2.864-.816-3.664c-.5333-.8-1.3706-1.2-2.512-1.2-1.1733 0-2.032.4-2.576 1.2s-.816 2.0213-.816 3.664.272 2.8693.816 3.68c.544.8 1.4027 1.2 2.576 1.2z" fill="#121111"/></svg>

<svg width="96" height="23" viewBox="0 0 96 23" fill="none" xmlns="http://www.w3.org/2000/svg">
<path d="M7.744 22.256C6.95467 22.256 6.256 22.144 5.648 21.92C5.05067 21.6853 4.544 21.36 4.128 20.944C3.72267 20.5173 3.41333 20.0053 3.2 19.408C2.98667 18.8107 2.88 18.144 2.88 17.408V8.832H1.472C1.216 8.832 0.997333 8.752 0.816 8.592C0.634667 8.42133 0.544 8.176 0.544 7.856V5.92L3.184 5.408L4.16 1.36C4.288 0.847999 4.65067 0.591999 5.248 0.591999H7.84V5.44H11.872V8.832H7.84V17.072C7.84 17.456 7.93067 17.776 8.112 18.032C8.304 18.2773 8.576 18.4 8.928 18.4C9.10933 18.4 9.25867 18.384 9.376 18.352C9.504 18.3093 9.61067 18.2667 9.696 18.224C9.792 18.1707 9.87733 18.128 9.952 18.096C10.0373 18.0533 10.1333 18.032 10.24 18.032C10.3893 18.032 10.5067 18.0693 10.592 18.144C10.688 18.208 10.784 18.3147 10.88 18.464L12.384 20.816C11.744 21.296 11.024 21.6587 10.224 21.904C9.424 22.1387 8.59733 22.256 7.744 22.256ZM15.0525 22V5.408H17.9965C18.2418 5.408 18.4445 5.42933 18.6045 5.472C18.7752 5.51467 18.9138 5.584 19.0205 5.68C19.1378 5.76533 19.2232 5.88267 19.2765 6.032C19.3405 6.18133 19.3938 6.36267 19.4365 6.576L19.7085 8.128C20.3165 7.18933 20.9992 6.448 21.7565 5.904C22.5138 5.36 23.3405 5.088 24.2365 5.088C24.9938 5.088 25.6018 5.26933 26.0605 5.632L25.4205 9.28C25.3778 9.504 25.2925 9.664 25.1645 9.76C25.0365 9.84533 24.8658 9.888 24.6525 9.888C24.4712 9.888 24.2578 9.86667 24.0125 9.824C23.7672 9.77067 23.4578 9.744 23.0845 9.744C21.7832 9.744 20.7592 10.4373 20.0125 11.824V22H15.0525ZM35.9832 5.152C37.2419 5.152 38.3886 5.34933 39.4233 5.744C40.4579 6.13867 41.3433 6.704 42.0793 7.44C42.8259 8.176 43.4019 9.072 43.8073 10.128C44.2233 11.1733 44.4312 12.352 44.4312 13.664C44.4312 14.9867 44.2233 16.1813 43.8073 17.248C43.4019 18.304 42.8259 19.2053 42.0793 19.952C41.3433 20.688 40.4579 21.2587 39.4233 21.664C38.3886 22.0587 37.2419 22.256 35.9832 22.256C34.7139 22.256 33.5566 22.0587 32.5112 21.664C31.4766 21.2587 30.5806 20.688 29.8232 19.952C29.0766 19.2053 28.4952 18.304 28.0792 17.248C27.6739 16.1813 27.4712 14.9867 27.4712 13.664C27.4712 12.352 27.6739 11.1733 28.0792 10.128C28.4952 9.072 29.0766 8.176 29.8232 7.44C30.5806 6.704 31.4766 6.13867 32.5112 5.744C33.5566 5.34933 34.7139 5.152 35.9832 5.152ZM35.9832 18.576C37.1246 18.576 37.9619 18.176 38.4952 17.376C39.0392 16.5653 39.3112 15.3387 39.3112 13.696C39.3112 12.0533 39.0392 10.832 38.4952 10.032C37.9619 9.232 37.1246 8.832 35.9832 8.832C34.8099 8.832 33.9512 9.232 33.4072 10.032C32.8632 10.832 32.5912 12.0533 32.5912 13.696C32.5912 15.3387 32.8632 16.5653 33.4072 17.376C33.9512 18.176 34.8099 18.576 35.9832 18.576ZM59.4417 9.344C59.2924 9.52533 59.1484 9.66933 59.0097 9.776C58.8711 9.88267 58.6737 9.936 58.4177 9.936C58.1724 9.936 57.9484 9.87733 57.7457 9.76C57.5537 9.64267 57.3351 9.51467 57.0897 9.376C56.8444 9.22667 56.5564 9.09333 56.2257 8.976C55.8951 8.85867 55.4844 8.8 54.9937 8.8C54.3857 8.8 53.8577 8.912 53.4097 9.136C52.9724 9.36 52.6097 9.68 52.3217 10.096C52.0337 10.512 51.8204 11.024 51.6817 11.632C51.5431 12.2293 51.4737 12.9067 51.4737 13.664C51.4737 15.2533 51.7777 16.4747 52.3857 17.328C53.0044 18.1813 53.8524 18.608 54.9297 18.608C55.5057 18.608 55.9591 18.5387 56.2897 18.4C56.6311 18.2507 56.9191 18.0907 57.1537 17.92C57.3884 17.7387 57.6017 17.5733 57.7937 17.424C57.9964 17.2747 58.2471 17.2 58.5457 17.2C58.9404 17.2 59.2391 17.344 59.4417 17.632L60.8818 19.408C60.3697 19.9947 59.8311 20.4747 59.2657 20.848C58.7004 21.2107 58.1191 21.4987 57.5217 21.712C56.9351 21.9147 56.3431 22.0533 55.7457 22.128C55.1484 22.2133 54.5671 22.256 54.0017 22.256C52.9884 22.256 52.0177 22.064 51.0897 21.68C50.1724 21.296 49.3617 20.7413 48.6577 20.016C47.9644 19.28 47.4097 18.3787 46.9937 17.312C46.5884 16.2453 46.3857 15.0293 46.3857 13.664C46.3857 12.4693 46.5617 11.3547 46.9137 10.32C47.2764 9.27467 47.8044 8.37333 48.4977 7.616C49.2017 6.848 50.0657 6.24533 51.0897 5.808C52.1244 5.37067 53.3191 5.152 54.6737 5.152C55.9751 5.152 57.1164 5.36 58.0977 5.776C59.0791 6.192 59.9644 6.8 60.7537 7.6L59.4417 9.344ZM75.3242 9.344C75.1749 9.52533 75.0309 9.66933 74.8922 9.776C74.7536 9.88267 74.5562 9.936 74.3002 9.936C74.0549 9.936 73.8309 9.87733 73.6282 9.76C73.4362 9.64267 73.2176 9.51467 72.9722 9.376C72.7269 9.22667 72.4389 9.09333 72.1082 8.976C71.7776 8.85867 71.3669 8.8 70.8762 8.8C70.2682 8.8 69.7402 8.912 69.2922 9.136C68.8549 9.36 68.4922 9.68 68.2042 10.096C67.9162 10.512 67.7029 11.024 67.5642 11.632C67.4256 12.2293 67.3562 12.9067 67.3562 13.664C67.3562 15.2533 67.6602 16.4747 68.2682 17.328C68.8869 18.1813 69.7349 18.608 70.8122 18.608C71.3882 18.608 71.8416 18.5387 72.1722 18.4C72.5136 18.2507 72.8016 18.0907 73.0362 17.92C73.2709 17.7387 73.4842 17.5733 73.6762 17.424C73.8789 17.2747 74.1296 17.2 74.4282 17.2C74.8229 17.2 75.1216 17.344 75.3242 17.632L76.7642 19.408C76.2522 19.9947 75.7136 20.4747 75.1482 20.848C74.5829 21.2107 74.0016 21.4987 73.4042 21.712C72.8176 21.9147 72.2256 22.0533 71.6282 22.128C71.0309 22.2133 70.4496 22.256 69.8842 22.256C68.8709 22.256 67.9002 22.064 66.9722 21.68C66.0549 21.296 65.2442 20.7413 64.5402 20.016C63.8469 19.28 63.2922 18.3787 62.8762 17.312C62.4709 16.2453 62.2682 15.0293 62.2682 13.664C62.2682 12.4693 62.4442 11.3547 62.7962 10.32C63.1589 9.27467 63.6869 8.37333 64.3802 7.616C65.0842 6.848 65.9482 6.24533 66.9722 5.808C68.0069 5.37067 69.2016 5.152 70.5562 5.152C71.8576 5.152 72.9989 5.36 73.9802 5.776C74.9616 6.192 75.8469 6.8 76.6362 7.6L75.3242 9.344ZM86.6307 5.152C87.8894 5.152 89.0361 5.34933 90.0707 5.744C91.1054 6.13867 91.9907 6.704 92.7267 7.44C93.4734 8.176 94.0494 9.072 94.4548 10.128C94.8707 11.1733 95.0787 12.352 95.0787 13.664C95.0787 14.9867 94.8707 16.1813 94.4548 17.248C94.0494 18.304 93.4734 19.2053 92.7267 19.952C91.9907 20.688 91.1054 21.2587 90.0707 21.664C89.0361 22.0587 87.8894 22.256 86.6307 22.256C85.3614 22.256 84.2041 22.0587 83.1587 21.664C82.1241 21.2587 81.2281 20.688 80.4707 19.952C79.7241 19.2053 79.1427 18.304 78.7267 17.248C78.3214 16.1813 78.1187 14.9867 78.1187 13.664C78.1187 12.352 78.3214 11.1733 78.7267 10.128C79.1427 9.072 79.7241 8.176 80.4707 7.44C81.2281 6.704 82.1241 6.13867 83.1587 5.744C84.2041 5.34933 85.3614 5.152 86.6307 5.152ZM86.6307 18.576C87.7721 18.576 88.6094 18.176 89.1427 17.376C89.6867 16.5653 89.9587 15.3387 89.9587 13.696C89.9587 12.0533 89.6867 10.832 89.1427 10.032C88.6094 9.232 87.7721 8.832 86.6307 8.832C85.4574 8.832 84.5987 9.232 84.0547 10.032C83.5107 10.832 83.2387 12.0533 83.2387 13.696C83.2387 15.3387 83.5107 16.5653 84.0547 17.376C84.5987 18.176 85.4574 18.576 86.6307 18.576Z" fill="#121111"/>
</svg>
